icons/svg/seamark/light_minor.svg

<?xml version="1.0" encoding="UTF-8" standalone="no"?>
<svg
   xmlns:dc="http://purl.org/dc/elements/1.1/"
   xmlns:cc="http://creativecommons.org/ns#"
   xmlns:rdf="http://www.w3.org/1999/02/22-rdf-syntax-ns#"
   xmlns:svg="http://www.w3.org/2000/svg"
   xmlns="http://www.w3.org/2000/svg"
   xmlns:sodipodi="http://sodipodi.sourceforge.net/DTD/sodipodi-0.dtd"
   xmlns:inkscape="http://www.inkscape.org/namespaces/inkscape"
   width="1060"
   height="1060"
   id="svg2"
   version="1.1"
   inkscape:version="0.48.4 r9939"
   sodipodi:docname="light_minor.svg">
  <defs
     id="defs13">
    <inkscape:path-effect
       effect="gears"
       id="path-effect3774"
       is_visible="true"
       teeth="6"
       phi="-1.2" />
    <inkscape:path-effect
       effect="bend_path"
       id="path-effect3772"
       is_visible="false"
       bendpath="m 95.790098,316.51174 c 144.429032,-206.42506 223.313032,-11.7428 339.548092,0"
       prop_scale="1.19"
       scale_y_rel="false"
       vertical="false"
       bendpath-nodetypes="cc" />
  </defs>
  <sodipodi:namedview
     pagecolor="#ffffff"
     bordercolor="#666666"
     borderopacity="1"
     objecttolerance="10"
     gridtolerance="10"
     guidetolerance="10"
     inkscape:pageopacity="0"
     inkscape:pageshadow="2"
     inkscape:window-width="1920"
     inkscape:window-height="1004"
     id="namedview11"
     showgrid="false"
     inkscape:zoom="0.40689655"
     inkscape:cx="392.24389"
     inkscape:cy="589.94046"
     inkscape:window-x="1680"
     inkscape:window-y="0"
     inkscape:window-maximized="1"
     inkscape:current-layer="svg2" />
  <metadata
     id="metadata2975">image/svg+xmlen<rdf:RDF>
  <cc:Work
     rdf:about="">
    <dc:format>image/svg+xml</dc:format>
    <dc:type
       rdf:resource="http://purl.org/dc/dcmitype/StillImage" />
    <dc:title />
  </cc:Work>
</rdf:RDF>
</metadata>
  <path
     style="opacity:0.42608696;color:#000000;fill:#acd8f3;fill-opacity:1;fill-rule:nonzero;stroke:#a35151;stroke-width:0;stroke-linecap:round;stroke-linejoin:miter;stroke-miterlimit:4;stroke-opacity:1;stroke-dashoffset:0;marker:none;visibility:visible;display:inline;overflow:visible;enable-background:accumulate"
     d="m 530.84497,170.2521 c -8.08925,0.27252 -16.07545,3.07069 -22.56582,7.90652 -6.49038,4.83581 -11.45614,11.68784 -14.03129,19.36108 l -67.5965,201.51729 -212.62788,-2.03552 c -8.38201,-0.0795 -16.7684,2.55774 -23.5964,7.4201 -6.828,4.86239 -12.0628,11.92516 -14.72896,19.87222 -2.66615,7.94708 -2.75003,16.73794 -0.23601,24.73445 2.514,7.99649 7.6131,15.15788 14.34706,20.14967 l 170.77234,126.542 -67.68132,201.55969 c -2.66292,7.94574 -2.7448,16.73398 -0.23035,24.72796 2.51445,7.99395 7.61241,15.15293 14.34439,20.14354 6.73197,4.99063 15.06368,7.7875 23.44337,7.8697 8.37969,0.0823 16.76468,-2.55068 23.59326,-7.4083 L 527.28279,719.29343 698.0127,845.92024 c 6.73404,4.98251 15.06456,7.77152 23.44113,7.84795 8.37654,0.0764 16.75655,-2.56014 23.58038,-7.41897 6.82382,-4.85882 12.05676,-11.9152 14.72485,-19.85584 2.66811,-7.94063 2.75782,-16.72518 0.25244,-24.71865 L 696.31644,599.02764 869.54836,475.70856 c 6.83418,-4.85902 12.07562,-11.92129 14.7469,-19.86989 2.67128,-7.94861 2.75877,-16.74297 0.24615,-24.74313 -2.51261,-8.00018 -7.61247,-15.16535 -14.34863,-20.15938 -6.73617,-4.99402 -15.07421,-7.7914 -23.4593,-7.87052 L 634.0632,401.03011 570.36814,198.24061 c -2.60199,-8.26915 -7.97348,-15.64037 -15.04808,-20.65029 -7.0746,-5.00993 -15.81113,-7.62933 -24.47509,-7.33822 z m -0.84814,295.10704 c 43.80713,0 77.52185,33.71471 77.52185,77.52185 0,43.80713 -33.71472,77.52185 -77.52185,77.52185 -43.80714,0 -77.52186,-33.71472 -77.52186,-77.52185 0,-43.80714 33.71472,-77.52185 77.52186,-77.52185 z"
     id="path3825"
     inkscape:connector-curvature="0"
     sodipodi:nodetypes="cscccssscccssscccssscccssscccscsssss" />
  <path
     d="M 532.10755,222.35672 458.34148,442.26645 226.36882,440.039 412.69327,578.11177 338.84041,798.05038 527.85517,663.50685 714.12177,801.66641 644.60808,580.42598 833.62284,445.88243 601.65017,443.65498 z"
     id="polygon7"
     inkscape:connector-curvature="0"
     sodipodi:nodetypes="ccccccccccc" />
</svg>

<svg width="1060" height="1060" viewBox="0 0 1060 1060" fill="none" xmlns="http://www.w3.org/2000/svg">
<path opacity="0.426087" d="M530.845 170.252C522.756 170.525 514.77 173.323 508.279 178.159C501.789 182.995 496.823 189.847 494.248 197.52L426.651 399.037L214.024 397.002C205.642 396.922 197.255 399.559 190.427 404.422C183.599 409.284 178.364 416.347 175.698 424.294C173.032 432.241 172.948 441.032 175.462 449.029C177.976 457.025 183.075 464.186 189.809 469.178L360.582 595.72L292.9 797.28C290.237 805.226 290.155 814.014 292.67 822.008C295.184 830.002 300.282 837.161 307.014 842.151C313.746 847.142 322.078 849.939 330.458 850.021C338.837 850.103 347.222 847.47 354.051 842.613L527.283 719.294L698.013 845.92C704.747 850.903 713.077 853.692 721.454 853.768C729.83 853.845 738.21 851.208 745.034 846.349C751.858 841.491 757.091 834.434 759.759 826.494C762.427 818.553 762.517 809.768 760.012 801.775L696.317 599.028L869.548 475.709C876.383 470.85 881.624 463.788 884.295 455.839C886.967 447.89 887.054 439.096 884.541 431.096C882.029 423.096 876.929 415.93 870.193 410.936C863.457 405.942 855.119 403.145 846.734 403.066L634.063 401.03L570.368 198.241C567.766 189.972 562.395 182.601 555.32 177.591C548.245 172.581 539.509 169.961 530.845 170.252ZM529.997 465.359C573.804 465.359 607.519 499.074 607.519 542.881C607.519 586.688 573.804 620.403 529.997 620.403C486.19 620.403 452.475 586.688 452.475 542.881C452.475 499.074 486.19 465.359 529.997 465.359Z" fill="#ACD8F3"/>
<path d="M532.107 222.356L458.341 442.266L226.369 440.039L412.693 578.111L338.84 798.05L527.855 663.507L714.122 801.666L644.608 580.426L833.623 445.882L601.65 443.655L532.107 222.356Z" fill="black"/>
</svg>
